X: 051
T: Minuetto 3
C: Ignatius Sancho (1775)
B: "Minuets Cotillons & Country Dances", 1775 p.5 #1
S: https://www.bl.uk/collection-items/minuets-cotillons-and-country-dances-by-ignatius-sancho#
N: The book's Corni part uses a bass clef on the middle line; changed to the usual "modern" bass clef on the 4th line.
N: The book's 2-voice corni/violi staffs are rewritten as 2-note "chords" for ABC 1.* software.
R: minuet
Z: 2020 John Chambers <jc:trillian.mit.edu>
M: 3/4
L: 1/8
K: G
V: 1 nm=Corni1 snm=C1 clef=bass   middle=D staves=2
V: 2 nm=Corni2 snm=C2 clef=bass   middle=D
V: 3 nm=Viol1  snm=V1 clef=treble middle=B staves=2
V: 4 nm=Viol2  snm=V2 clef=treble middle=B
V: 5 nm=Bassi  snm=B  clef=bass   middle=d
%%score (1 2) (3 4) 5
% - - - - - - - - - -
[V:1] |: G2 G>GG>G | G2 D2 G2 | [B2G2] [BG]>[BG][BG]>[BG] | [B2G2] [G2D2] [B2G2] |\
  [d2B2] [dB]>[dB][dB]>[dB] | [d2B2] [B2G2] [d2B2] | d2 c2 B2 | B2 A4 :| 
[V:3] |: [G2G,6] G>GG>G | G2 D2 G2 | [B2G2] [BG]>[BG][BG]>[BG] | [B2G2] [G2D2] [B2G2] |\
         [d2B2] [dB]>[dB][dB]>[dB] | [d2B2] [B2G2] [d2B2] | ([d/B/][e/c/][dB]) [c2A2] [B2G2] | T[B2G2] [A4F4] :|
[V:5] |: g2 d2 B2  | G2 z2 z2 | g2 d2 B2  | G2 z2 z2 | G2 B2 d2  | g2 z2 z2 | z2 g2 G2 | d2 d'c' ba :|
% - - - - - - - - - -
[V:1] |: z6 | z6 | z6 | z6 | [d2B] z2 z2 | [d2B] z2 z2 | GA [B2D2] [A2D2] | [G6G,6] :|
[V:3] |: d2 d>dd>d | d2 g2 d2 | c2 a2 c2 | c2 B2 A2 | (3(gfg) (d2 B)z | (3(gfg) (d2 B)z | (3 [ec][dB][cA] [B2G2] [A2F2] | [G6G6] :|
[V:5] |: b2 b>bb>b | b4    g2 | a2 f2 d2 | g2 G2 d2 | .G2     (b2 g)z | .G2      b2 gz  | c2      d2 D2 | G6 :|
% - - - - - - - - - -
